app/style/icons/editHover.svg

<svg viewBox="22889 9283 20 20" xmlns="http://www.w3.org/2000/svg"><path d="m16.566 53.861h-15.186v-15.181h9.32l1.38-1.38h-12.08v17.941h17.946v-12.09l-1.38 1.38z" fill="#959dac" transform="translate(22889 9247.759)"/><path d="m99.744.977-.977-.977-10.29 10.29-.977 4.88.513-2.567 2.054 2.054-2.567.513 4.88-.977-2.926-2.926z" fill="#959dac" transform="translate(22806.331 9283)"/><g fill="#091440"><path d="m0 0h14.551v4.14h-14.551z" transform="matrix(.70710678 -.70710678 .70710678 .70710678 22895.784 9294.265)"/><path d="m88.013 228.3-.513 2.567 2.567-.513z" transform="translate(22806.331 9067.303)"/></g></svg>

<svg xmlns="http://www.w3.org/2000/svg" viewBox="22889 9283 20 20"><defs><style>.a{fill:#959dac;}.b{fill:#091440;}</style></defs><g transform="translate(22028 8800)"><path class="a" d="M16.566,53.861H1.38V38.68H10.7l1.38-1.38H0V55.241H17.946V43.151l-1.38,1.38Z" transform="translate(861 447.759)"/><path class="a" d="M99.744.977,98.767,0,88.477,10.29,87.5,15.17l.513-2.567,2.054,2.054L87.5,15.17l4.88-.977-2.926-2.926Z" transform="translate(778.331 483)"/><rect class="b" width="14.551" height="4.14" transform="translate(867.784 494.265) rotate(-45)"/><path class="b" d="M88.013,228.3l-.513,2.567,2.567-.513Z" transform="translate(778.331 267.303)"/></g></svg>
